packages/core/src/svgs/tokens/mono/CUSD.svg

<svg width="24" height="24" viewBox="0 0 24 24" fill="none" xmlns="http://www.w3.org/2000/svg">
<path d="M16.7186 3.28129C17.4186 3.34378 18.1435 3.4688 18.8749 3.6688V5.65637C18.4998 5.38136 17.5748 4.82509 15.8561 4.82509C14.1372 4.82509 13.8372 5.56261 13.8996 5.93763C13.8498 6.10638 14.0248 6.5189 15.0872 6.81266C15.3185 6.87515 15.5998 6.92516 15.9248 6.98767C17.5561 7.28142 20.1249 7.75644 20.1249 10.2377C20.1249 11.9566 18.6811 12.9941 16.7186 13.2066L16.9373 14.5004H14.9997L15.2061 13.2128C14.0924 13.1048 13.0068 12.8001 11.9997 12.3129V10.2377C12.8872 10.8002 17.9061 12.5691 18.1686 10.2377C18.2499 9.47524 17.1998 9.25023 15.9436 8.97522C14.1747 8.60021 11.9997 8.12521 11.9997 5.94387C11.9997 4.30631 13.3497 3.46254 15.1998 3.28753L14.9997 2H16.9436L16.7248 3.28129H16.7186ZM11.9997 20.1256C13.2162 20.1261 14.4067 19.7716 15.4248 19.1056C16.4429 18.4394 17.2444 17.4906 17.7311 16.3755H19.7311C19.303 17.6991 18.5423 18.8906 17.5215 19.8359C16.501 20.7813 15.2548 21.4486 13.9023 21.7743C12.5498 22.0999 11.1363 22.0728 9.79736 21.6957C8.45828 21.3185 7.23851 20.6039 6.25484 19.6202C5.27116 18.6366 4.55651 17.4168 4.17934 16.0777C3.80217 14.7387 3.7751 13.3253 4.10075 11.9728C4.42639 10.6203 5.09382 9.37406 6.03913 8.35346C6.98443 7.33284 8.17595 6.57203 9.49956 6.14388V8.14395C8.18166 8.71722 7.1016 9.72715 6.44128 11.0037C5.78093 12.2802 5.58068 13.7451 5.87424 15.152C6.1678 16.5589 6.93723 17.8216 8.05293 18.7276C9.16865 19.6335 10.5624 20.1272 11.9997 20.1256Z" fill="white"/>
</svg>

<svg xmlns="http://www.w3.org/2000/svg" width="24" height="24" fill="none" viewBox="0 0 24 24">
    <path fill="#fff" d="M16.719 3.281c.7.063 1.424.188 2.156.388v1.987c-.375-.275-1.3-.83-3.019-.83s-2.019.737-1.956 1.112c-.05.168.125.58 1.187.875.232.062.513.112.838.175 1.631.293 4.2.768 4.2 3.25 0 1.719-1.444 2.756-3.406 2.969l.218 1.293H15l.206-1.287a9.5 9.5 0 0 1-3.206-.9v-2.075c.887.562 5.906 2.331 6.169 0 .08-.763-.97-.988-2.225-1.263C14.174 8.6 12 8.125 12 5.944c0-1.638 1.35-2.481 3.2-2.656L15 2h1.944l-.22 1.281zm-4.72 16.845a6.25 6.25 0 0 0 5.732-3.75h2a8.123 8.123 0 0 1-9.934 5.32A8.125 8.125 0 0 1 9.5 6.144v2A6.25 6.25 0 0 0 12 20.126"/>
</svg>
